svgs/pixel_screenshots.svg

<svg width="192" height="192" viewBox="0 0 192 192" fill="none" xmlns="http://www.w3.org/2000/svg">
<path d="M62.4909 123.309L46.7938 132.727C45.4059 133.56 43.8177 134 42.1991 134H41.698C40.6411 134 39.5988 133.754 38.6534 133.281L38.5706 133.24C37.5652 132.737 36.7084 131.981 36.0848 131.045V131.045C35.3775 129.984 35 128.738 35 127.462V57.5996C35 56.2752 35.2135 54.9594 35.6323 53.703V53.703C35.8889 52.9332 36.221 52.1906 36.6235 51.4861L36.9693 50.881C37.6896 49.6205 38.5747 48.4617 39.6013 47.4351V47.4351C40.6022 46.4341 41.7291 45.5675 42.9535 44.8571L80.6878 22.9618C81.7736 22.3318 83.0066 22 84.2619 22H84.4624C85.7377 22 86.9844 22.3775 88.0454 23.0848V23.0848C88.9808 23.7084 89.7372 24.5652 90.2399 25.5706L90.2813 25.6534C90.7539 26.5988 91 27.6411 91 28.698V35.2364V47.9636" stroke="black" stroke-width="12"/>
<path d="M93.0364 137.273L74.8039 148.668C73.4112 149.538 71.8019 150 70.1596 150H69.698C68.6411 150 67.5988 149.754 66.6534 149.281L66.5706 149.24C65.5652 148.737 64.7084 147.981 64.0848 147.045V147.045C63.3775 145.984 63 144.738 63 143.462V73.5996C63 72.2752 63.2135 70.9594 63.6323 69.703V69.703C63.8889 68.9332 64.221 68.1906 64.6235 67.4861L64.9693 66.881C65.6896 65.6205 66.5747 64.4617 67.6013 63.4351V63.4351C68.6022 62.4341 69.7291 61.5675 70.9535 60.8571L108.688 38.9618C109.774 38.3318 111.007 38 112.262 38H112.462C113.738 38 114.984 38.3775 116.045 39.0848V39.0848C116.981 39.7084 117.737 40.5652 118.24 41.5706L118.281 41.6534C118.754 42.5988 119 43.6411 119 44.698V51.2364V67.5273" stroke="black" stroke-width="12"/>
<path d="M92.7943 86.5487L92.4795 87.9605C92.1608 89.3896 92 90.8494 92 92.3136V135.907V137.942C92 139.287 92.2574 140.619 92.7582 141.867L93.0213 142.522L94.5532 145.575L103.305 162.1C103.937 163.293 104.692 164.416 105.557 165.451L105.959 165.931C106.524 166.606 107.156 167.224 107.844 167.773L108.426 168.237C109.047 168.731 109.736 169.132 110.473 169.425C111.426 169.805 112.442 170 113.467 170H114.058C114.671 170 115.283 169.95 115.887 169.849L115.953 169.838C117.335 169.609 118.667 169.138 119.886 168.448L155.83 148.119L160.437 145.198C161.106 144.773 161.705 144.248 162.214 143.641L162.368 143.456C163.422 142.195 164 140.604 164 138.96C164 136.953 163.531 134.973 162.631 133.178L162.468 132.854L160.426 129.801L158.383 126.748L156.405 124.12C155.683 123.16 155.048 122.137 154.509 121.063L153.277 118.606L151.873 115.809C151.448 114.961 151.083 114.084 150.782 113.184L149.702 109.956L149.282 108.281C148.883 106.69 148.681 105.055 148.681 103.414V61.9724C148.681 61.3963 148.624 60.8217 148.51 60.257L148.411 59.7627C148.252 58.9699 147.939 58.2161 147.489 57.544L147.466 57.5096C147.255 57.1942 147.014 56.9005 146.745 56.6326L146.65 56.538C145.974 55.8645 145.128 55.387 144.202 55.1564C143.785 55.0525 143.357 55 142.927 55H142.442C141.837 55 141.233 55.0596 140.639 55.178L140.56 55.1937C139.512 55.4025 138.505 55.7769 137.576 56.3028L99.2614 77.9853C98.1701 78.6029 97.1669 79.3645 96.2786 80.2496L96.2046 80.3234C95.7851 80.7415 95.3957 81.1889 95.0395 81.6621C94.3778 82.5414 93.8349 83.504 93.425 84.5252L93.4097 84.5633C93.1512 85.2073 92.9454 85.8713 92.7943 86.5487Z" stroke="black" stroke-width="12"/>
</svg>

<svg xmlns="http://www.w3.org/2000/svg" width="192" height="192" fill="none"><path stroke="#000" stroke-width="12" d="m62.49 123.309-15.696 9.418A8.93 8.93 0 0 1 42.199 134h-.501c-1.057 0-2.1-.246-3.045-.719l-.082-.041a6.458 6.458 0 0 1-3.57-5.778V57.6a12.327 12.327 0 0 1 1.624-6.113l.344-.606a16.329 16.329 0 0 1 5.984-6.024l37.735-21.895A7.1 7.1 0 0 1 84.262 22h.2a6.46 6.46 0 0 1 5.778 3.57l.041.083c.473.946.719 1.988.719 3.045v19.266"/><path stroke="#000" stroke-width="12" d="m93.036 137.273-18.232 11.395A8.77 8.77 0 0 1 70.16 150h-.462c-1.057 0-2.1-.246-3.045-.719l-.082-.041a6.458 6.458 0 0 1-3.57-5.778V73.6a12.327 12.327 0 0 1 1.624-6.114l.344-.605a16.329 16.329 0 0 1 5.984-6.024l37.735-21.895a7.1 7.1 0 0 1 3.574-.962h.2a6.458 6.458 0 0 1 5.778 3.57l.041.083c.473.946.719 1.988.719 3.045v22.829"/><path stroke="#000" stroke-width="12" d="m92.794 86.549-.314 1.411a20 20 0 0 0-.48 4.354v45.628c0 1.345.257 2.677.758 3.925l.263.655 1.532 3.053 8.752 16.525a19.4 19.4 0 0 0 2.252 3.351l.402.48a13 13 0 0 0 1.885 1.842l.582.464a8.1 8.1 0 0 0 5.041 1.763h.591q.921 0 1.829-.151l.066-.011c1.382-.229 2.714-.7 3.933-1.39l35.944-20.329 4.607-2.921a7.7 7.7 0 0 0 1.777-1.557l.154-.185A7 7 0 0 0 164 138.96c0-2.007-.469-3.987-1.369-5.782l-.163-.324-2.042-3.053-2.043-3.053-1.978-2.628a20 20 0 0 1-1.896-3.057l-1.232-2.457-1.404-2.797a20 20 0 0 1-1.091-2.625l-1.08-3.228-.42-1.675a20 20 0 0 1-.601-4.867V61.972q0-.866-.171-1.715l-.099-.494a6.2 6.2 0 0 0-.922-2.219l-.023-.034a5.8 5.8 0 0 0-.721-.877l-.095-.095A5.27 5.27 0 0 0 142.927 55h-.485c-.605 0-1.209.06-1.803.178l-.079.016a10 10 0 0 0-2.984 1.109L99.261 77.985a14 14 0 0 0-2.982 2.265l-.074.073a12.5 12.5 0 0 0-2.78 4.202l-.015.038a13 13 0 0 0-.616 1.986Z"/></svg>
